X: 35800
T: Salmon Tails Up The Water
R: polka
M: 2/4
K: Gmajor
D>E DB,|DE GA|Bd AB/A/|GE cE|
D>E DB,|DE GA|Bd AB/A/|G2 G2:|
{A}Bd d>B|ce e>B|Bd AB/A/|GE cE|
{A}Bd d>B|ce e>f|ge (3)fed|ef g>A|
Bd d>B|ce e>A|Bd AB/A/|GE cE|
D>E DB,|DE GA|Bd AB/A/|G2 G2||

